X:1
T:Title
%%score { 1 | 2 }
L:1/8
M:6/8
K:D
V:1 treble nm="Grand Piano"
V:2 bass 
V:1
 z3 z2[Q:1/4=100] D | F2 E D2 F | A2 A A2 [FA] | [GB]2 [FA] [Fd]2 [GB] | [FA]2 F FED | F2 E D2 F | %6
 A2 [CA] [DA]2 [FA] | [GB]2 [Gd] [Gc]2 [Fd] | c2 B B [CA]2- |[M:5/8] [CA]3 z2 |[M:1/8] [GA] | %11
[M:3/4] [Fd]>[Fd] [Fd] [Fd]2 [FA] |[M:5/8] [GB]>[FA][DF] [FA]2 |[M:1/8] [FA] | %14
[M:3/4] [GB]2 [DA] [Fd]2 [GB] | [FA]2 FF ED | F>F F F2 E |[M:15/16] D>F[DFA] [DGB]3 [DAd]3/2 | %18
[M:3/4] [EAc]>[DGB] [CGA] [A,CG]2[K:bass] [E,A,C] | [G,CE][F,A,D]- [F,A,D]3 z |] %20
V:2
 z3 z2 [D,F,] | [D,A,D]2 [D,G,D] [D,F,]2 [D,A,D] | [D,F,D]2 [D,F,D] [D,F,D]2 [D,D] | %3
 [G,D]2 [D,D] [D,A,]2 [D,D] | [D,D]2 [D,A,D] [D,A,D][D,G,D][D,F,] | %5
 [D,A,D]2 [D,G,D] [D,F,]2 [D,A,D] | [D,F,D]2 [A,,E,] [D,F,]2 [D,D] | [G,D]2 [G,B,] [E,A,]2 [D,A,] | %8
 [E,A,E]2 [E,^G,D] [E,G,D] [A,,A,]2- |[M:5/8] [A,,A,]3 z2 |[M:1/8] [A,C] | %11
[M:3/4] [D,D]>[D,A,] [D,A,] [D,A,]2 [D,D] |[M:5/8] [D,D]>[D,D][D,A,] [D,D]2 |[M:1/8] [D,D] | %14
[M:3/4] [G,D]2 [F,A,] [D,A,]2 [D,D] | [D,D]2 [D,A,D][D,A,D] [D,G,D][D,F,] | %16
 [D,A,D]>[D,A,D] [D,A,D] [D,A,D]2 [D,G,D] |[M:15/16] [D,F,]>[D,A,D]D, G,3 F,3/2 | %18
[M:3/4] A,>A,, A,, A,,2 A,, | A,,D,- D,3 z |] %20

